X:317
T:Silbaatno
Z:Mikael Segerstrom
R:polka 32 schottische
L:1/4
Q:1/4=200
M:4/4
I:linebreak $
K:C
V:1 treble nm="Unnamed-000"
V:2 treble nm="Unnamed-001"
V:3 bass nm="Unnamed-002"
V:1
|:!fff! E A/ c/ e e | E ^G/B/ d d | e e/f/ e d | c/d/ c/B/ A A | E A/c/ e e | E ^G/B/ d d |
e e/f/ e/d/ c/B/ |1 A c A2 :|2 A c A2 |: a a/g/ f f | e e/d/ c c | B/A/ B/c/ d d | c/B/ c/d/ e e |
a a/g/ f f | e e/d/ c c | E ^G/B/ e/d/ c/B/ |1 A c A- A :|2 A c A2 |]
V:2
|: z"Am" [Ace] z [Ace] | z"E" [E^GB] z"D" [D^FA] | z"Em" [EGB] z"G" [GBd] |
z"Am" [Ace] z [Ace] | z"Am" [Ace] z [Ace] | z"E" [E^GB] z"D" [D^FA] |
z"E7" [E^GBd] z [E^GBd] |1 z"Am" [Ace] z [Ace] :|2 z"Am" [Ace] z [Ace] |:
z"F" [FAc] z"Dm" [DFA] | z"C" [CEG] z"D" [D^FA] | z"Em" [EGB] z"G" [GBd] |
z"Am" [Ace] z"Em" [EGB] | z"F" [FAc] z"Dm" [DFA] | z"C" [CEG] z"D" [D^FA] |
z"E7" [E^GBd] z [E^GBd] |1 z"Am" [Ace] z"G" [GBd] :|2 z"Am" [Ace] z [Ace] |]
V:3
|: A,,2 C, A,, | E,,2 D,,2 | E,,2 G,,2 | A,,2 E,, G,, | A,,2 C, A,, | E,,2 D,,2 | E,,2 ^G,,2 |1
A,,2 E,, G,, :|2 A,,2 C, A,, |: F,,2 D,,2 | C,,2 D,,2 | E,,2 G,,2 | A,,2 E,,2 | F,,2 D,,2 |
C,,2 D,,2 | E,,2 ^G,,2 |1 A,,2 G,,2 :|2 A,,2 E,, G,, |]

